public/library/hemi-text-dark.svg

<svg xmlns="http://www.w3.org/2000/svg" width="3000" height="866" fill="none" viewBox="0 0 3000 866"><path fill="#ff4600" d="m502.875 7.154-52.5 309.877H410.25L357.75 7.154c-.75-4.142-4.5-6.777-8.625-6.024C146.625 39.535 0 218.006 0 433s146.625 393.465 349.5 431.871c4.125.753 7.875-1.883 8.625-6.025l52.5-309.877h40.125l52.5 309.877c.75 4.142 4.5 6.778 8.625 6.025 202.875-38.029 349.5-216.877 349.5-431.871S714.375 39.535 511.5 1.13c-4.125-.753-7.875 1.882-8.625 6.024"/><path fill="#fff" d="M1471.87 269.59c-24-13.932-51.75-20.709-83.62-20.709s-63.75 7.907-87 23.344-39.75 36.899-50.25 64.009h-5.25V100.908H1122v614.483h127.12V448.814c0-19.956 4.13-36.899 11.63-50.83 7.5-13.932 18-24.851 31.12-32.381 13.13-7.531 28.51-10.919 45.75-10.919 25.88 0 46.13 7.907 60.38 23.72 14.25 15.814 21.37 38.029 21.37 66.268v270.719h127.13v-293.31c0-36.146-6.38-67.021-19.5-93.001s-31.88-45.936-55.5-59.867zm516.38 37.275c-19.5-19.579-42.38-33.887-68.63-43.676s-54.37-14.685-84.75-14.685c-45 0-84.37 10.167-117.75 30.122-33.37 19.956-59.24 47.818-77.62 83.588s-27.38 77.563-27.38 124.629c0 47.065 9 90.741 27.38 126.135 18.38 35.393 44.62 62.879 78.37 82.081 34.13 19.203 74.63 28.992 121.88 28.992s71.25-6.024 100.12-17.696c28.88-11.672 52.5-28.239 71.25-49.324 18.38-21.086 30.75-45.936 36.75-74.175l-117.75-7.907c-4.5 11.672-10.87 21.462-19.12 29.369-8.25 7.906-18.38 13.931-30 18.073-11.63 4.141-24.75 6.024-39 6.024-21.37 0-39.75-4.518-55.13-13.555q-23.055-13.554-36-38.405c-8.62-16.567-12.75-36.146-12.75-59.114h312.38v-35.017c0-39.158-5.62-73.421-16.5-102.79-10.87-29.369-26.25-53.843-45.75-73.045zm-250.13 131.783c.75-16.567 4.88-31.628 12.75-45.559 8.25-15.061 19.88-26.733 34.88-35.77 15-9.036 31.87-13.178 51.37-13.178s34.88 4.142 48.75 12.049c13.88 8.283 25.13 19.202 33.01 33.51 7.87 14.308 12 30.498 12 48.948h-192.76m1193.26-243.233c18.74 0 35.24-6.401 48.37-19.203 13.5-12.801 20.25-27.862 20.25-45.935s-6.75-32.758-20.25-45.56-29.63-19.202-48.37-19.202c-18.76 0-35.26 6.4-48.38 19.203-13.5 12.801-20.25 27.862-20.25 45.559s6.75 33.134 20.25 45.935 29.62 19.203 48.38 19.203m-292.13 53.089c-33.75 0-62.63 7.907-87.38 23.721s-41.62 36.899-50.99 63.632H2496c-7.5-26.733-22.13-48.194-44.25-63.632-22.13-15.814-48.75-23.721-80.25-23.721s-57.75 7.907-80.25 23.345c-22.13 15.437-38.25 36.899-47.63 64.008h-5.24v-81.328h-121.13v460.862h127.12V438.648c0-16.944 3.38-32.004 9.75-44.43 6.38-12.801 15.38-22.591 26.63-29.745s24-10.542 38.25-10.542c21 0 37.88 6.777 50.63 19.955 12.75 13.555 19.12 31.251 19.12 53.843v287.286h123.38V433.753c0-24.097 6.37-43.3 19.49-57.984 13.13-14.685 31.13-22.215 54-22.215 22.88 0 37.13 6.401 50.63 19.203q20.25 19.202 20.25 57.607v284.651h127.12V405.137c0-50.077-13.5-88.482-40.12-115.968-26.63-27.486-61.5-41.041-104.25-41.041zm228 466.887h127.12V254.529h-127.12z"/></svg>

<svg width="3000" height="866" viewBox="0 0 3000 866" fill="none" xmlns="http://www.w3.org/2000/svg">
<path d="M502.875 7.15403L450.375 317.031H410.25L357.75 7.15403C357 3.01229 353.25 0.376639 349.125 1.12968C146.625 39.5349 0 218.006 0 433C0 647.994 146.625 826.465 349.5 864.871C353.625 865.624 357.375 862.988 358.125 858.846L410.625 548.969H450.75L503.25 858.846C504 862.988 507.75 865.624 511.875 864.871C714.75 826.842 861.375 647.994 861.375 433C861.375 218.006 714.375 39.5349 511.5 1.12968C507.375 0.376639 503.625 3.01229 502.875 7.15403Z" fill="#FF4600"/>
<path d="M1471.87 269.59C1447.87 255.658 1420.12 248.881 1388.25 248.881C1356.38 248.881 1324.5 256.788 1301.25 272.225C1278 287.663 1261.5 309.124 1251 336.234H1245.75V100.908H1122V715.391H1249.12V448.814C1249.12 428.858 1253.25 411.915 1260.75 397.984C1268.25 384.052 1278.75 373.133 1291.87 365.603C1305 358.072 1320.38 354.684 1337.62 354.684C1363.5 354.684 1383.75 362.591 1398 378.404C1412.25 394.218 1419.37 416.433 1419.37 444.672V715.391H1546.5V422.081C1546.5 385.935 1540.12 355.06 1527 329.08C1513.88 303.1 1495.12 283.144 1471.5 269.213L1471.87 269.59ZM1988.25 306.865C1968.75 287.286 1945.87 272.978 1919.62 263.189C1893.37 253.399 1865.25 248.504 1834.87 248.504C1789.87 248.504 1750.5 258.671 1717.12 278.626C1683.75 298.582 1657.88 326.444 1639.5 362.214C1621.12 397.984 1612.12 439.777 1612.12 486.843C1612.12 533.908 1621.12 577.584 1639.5 612.978C1657.88 648.371 1684.12 675.857 1717.87 695.059C1752 714.262 1792.5 724.051 1839.75 724.051C1887 724.051 1911 718.027 1939.87 706.355C1968.75 694.683 1992.37 678.116 2011.12 657.031C2029.5 635.945 2041.87 611.095 2047.87 582.856L1930.12 574.949C1925.62 586.621 1919.25 596.411 1911 604.318C1902.75 612.224 1892.62 618.249 1881 622.391C1869.37 626.532 1856.25 628.415 1842 628.415C1820.63 628.415 1802.25 623.897 1786.87 614.86C1771.5 605.824 1759.5 593.022 1750.87 576.455C1742.25 559.888 1738.12 540.309 1738.12 517.341H2050.5V482.324C2050.5 443.166 2044.88 408.903 2034 379.534C2023.13 350.165 2007.75 325.691 1988.25 306.489V306.865ZM1738.12 438.648C1738.87 422.081 1743 407.02 1750.87 393.089C1759.12 378.028 1770.75 366.356 1785.75 357.319C1800.75 348.283 1817.62 344.141 1837.12 344.141C1856.62 344.141 1872 348.283 1885.87 356.19C1899.75 364.473 1911 375.392 1918.88 389.7C1926.75 404.008 1930.88 420.198 1930.88 438.648H1738.5H1738.12ZM2931.38 195.415C2950.12 195.415 2966.62 189.014 2979.75 176.212C2993.25 163.411 3000 148.35 3000 130.277C3000 112.204 2993.25 97.5192 2979.75 84.7175C2966.25 71.9158 2950.12 65.5149 2931.38 65.5149C2912.62 65.5149 2896.12 71.9158 2883 84.7175C2869.5 97.5192 2862.75 112.58 2862.75 130.277C2862.75 147.973 2869.5 163.411 2883 176.212C2896.5 189.014 2912.62 195.415 2931.38 195.415ZM2639.25 248.504C2605.5 248.504 2576.62 256.411 2551.87 272.225C2527.12 288.039 2510.25 309.124 2500.88 335.857H2496C2488.5 309.124 2473.87 287.663 2451.75 272.225C2429.62 256.411 2403 248.504 2371.5 248.504C2340 248.504 2313.75 256.411 2291.25 271.849C2269.12 287.286 2253 308.748 2243.62 335.857H2238.38V254.529H2117.25V715.391H2244.37V438.648C2244.37 421.704 2247.75 406.644 2254.12 394.218C2260.5 381.417 2269.5 371.627 2280.75 364.473C2292 357.319 2304.75 353.931 2319 353.931C2340 353.931 2356.88 360.708 2369.63 373.886C2382.38 387.441 2388.75 405.137 2388.75 427.729V715.015H2512.13V433.753C2512.13 409.656 2518.5 390.453 2531.62 375.769C2544.75 361.084 2562.75 353.554 2585.62 353.554C2608.5 353.554 2622.75 359.955 2636.25 372.757C2649.75 385.558 2656.5 404.761 2656.5 430.364V715.015H2783.62V405.137C2783.62 355.06 2770.12 316.655 2743.5 289.169C2716.87 261.683 2682 248.128 2639.25 248.128V248.504ZM2867.25 715.391H2994.37V254.529H2867.25V715.391Z" fill="white"/>
</svg>
